app/dist/common/images/lakeland-financial.svg

<svg height="18" viewBox="0 0 18 18" width="18" xmlns="http://www.w3.org/2000/svg"><path d="m0 0h18v18h-18z" fill="#f0f3fa"/><path d="m13.77 10.5a5 5 0 1 0 -9.2.82l4.43-5.32v1.9l-3.36 4.1h-.64a5 5 0 0 0 8 0h-3.5v-6h1.5v4.5zm-4.77-.4v-1.79l-3.03 3.69h1.3zm0 .4v1.5h-1.4z" fill="#14447e" fill-rule="evenodd"/></svg>

<!-- by TradingView --><svg width="18" height="18" viewBox="0 0 18 18" xmlns="http://www.w3.org/2000/svg"><path fill="#F0F3FA" d="M0 0h18v18H0z"/><path fill-rule="evenodd" d="M13.77 10.5a5 5 0 1 0-9.2.82L9 6v1.9L5.64 12H5a5 5 0 0 0 8 0H9.5V6H11v4.5h2.77ZM9 10.1V8.31L5.97 12h1.3L9 10.1Zm0 .4V12H7.6L9 10.5Z" fill="#14447E"/></svg>
